X: 49
T: Highway to Dublin, The
R:Jig
S:MacDonald - Skye Collection
N:pg.177
M:6/8
L:1/8
K:A Mix
=g|~f>ed ~c>BA|ecA A2=g|~f>ed dcd|dB=G G2g|
~f>ed ~c>BA|def ef^g|a=gf g2e|dB=G G2:|
|:=g|(f/=g/)af g2f|ecA A2=g|(f/=g/)af g2e|dB=G G2g|
(f/=g/)af geg|fdf ef^g|a=gf gfe|dB=G G2:|


